X:1
T:Title
T:Amphibia Opening Theme
T:Arranged by PDScores
C:Composer
%%score { 1 | 2 }
L:1/8
M:4/4
K:Bb
V:1 treble nm="Piano" snm="Pno."
V:2 bass 
V:1
!fff! BG/D GB G/E z/ E/G/B/ | dF/B dc C/F/A/ c/D/^F/A/ | BG/D GB G/E z/ E/G/B/ | %3
 dF/Bd c2 z/ d/e/d/c/ |!mf! BG/D GB G/E z/ E/G/B/ | dF/B dc C/F/A/ c/D/^F/A/ | %6
 BG/D GB G/E z/ E/G/B/ | dF/B dc F/A/c/ d/e/d/c/ | BG/E GB G/E z/ E/G/B/ | cA/FA c2- c z z/ | %10
 cA/^F Ac A/e dc | dA/^F AD D/c BA | BG/D GB G/E z/ E/G/B/ | d^F/B dc C/=F/A/ d/e/d/c/ | %14
 BG/E GB G/E z/ E/G/B/ | cA/FA c2- c z z/ | cA/^F Ac A/F z z | dA/^F ADD/c BA | %18
 BG/D GB G/E z/ E/G/B/ | dF/B dc F/A/c/ d/e/d/c/ | B3/2E3/2B A3/2D>^FA/ | [B,DG]8 |] %22
V:2
 z8 | z8 | G,,2 z/ G,,E,/- E,4 | [B,,B,]2 z/ [B,,B,] [C,A,]2 D,,/- D,,2 | %4
 [G,,B,,D,G,]2 [G,,B,,D,G,]2 [G,,B,,E,G,]2 [G,,B,,E,G,]2 | %5
 [F,,B,,D,F,]2 [F,,B,,D,F,]2 [F,,A,,C,F,]2 [^F,,A,,C,^F,]2 | %6
 [G,,B,,D,G,]2 [G,,B,,D,G,]2 [G,,B,,E,G,]2 [G,,B,,E,G,]2 | %7
 [F,,A,,C,F,]2 [F,,A,,C,F,]2 [F,,A,,C,F,]2 [^F,,A,,C,^F,]2 | [E,,B,,E,]4 [E,,B,,E,]4 | %9
 [F,,C,F,]4 [F,,C,F,]4 | [^F,,D,^F,]4 [F,,D,F,]4 | [D,,A,,D,]8 | %12
 [G,,D,G,]2 [G,,D,G,]2 [E,,B,,E,]2 [E,,B,,E,]2 | [B,,F,B,]2 [B,,F,B,]2 [F,,C,F,]2 [F,,C,F,]2 | %14
 [E,,B,,E,]2 [E,,B,,E,]2 [E,,B,,E,]2 [E,,B,,E,]2 | [F,,C,F,]2 [F,,C,F,]2 [F,,C,F,]2 [F,,C,F,]2 | %16
 [^F,,D,^F,]2 [F,,D,F,]2 [F,,D,F,]2 [F,,D,F,]2 | [D,,A,,D,]2 [D,,A,,D,]2 [D,,A,,D,]2 [D,,A,,D,]2 | %18
 [G,,D,G,]2 [G,,D,G,]2 [E,,B,,E,]2 [E,,B,,E,]2 | [B,,F,B,]2 [B,,F,B,]2 [F,,C,F,]2 [F,,C,F,]2 | %20
 [E,,B,,E,]4 [D,,A,,D,]4 | [G,,D,G,]8 |] %22

